X:122
T: Gusu fengguang (Da jiulianhuan)
N: C0169C
O: China, Jiangsu, Suzhou
S: III, 495]
N: Hier sind viele Weisen zusammengetragen. Wird von Streich-, Matouqin)
N: und Zupfinstrumenten begleitet. Die Saengerin imitiert die
N: Zwischenspiele. Charakter der Lokaloper. Saengerin: Huang Bai
N: +++Dieses Lied wurde GETEILT!! Der 2.,3.,4. Teil folgt unter gleicher
N: Signatur. Mehrere Verzierungen. Vor- und Zwischenspiele weggelassen.
N: GRUNDTONWECHSEL!
R: Xiaodiao, Shidiao, Xiangjiangliang diao]
M: 2/4
L: 1/16
K: G
A4d2ed | ^c4d4 | A3Bd2ed | B3AGFEG | A4d2B2 | A8
A4d2ed | ^c4d4 | A3Bd2ed | B3AGFEG | A4B2F2 | E3GD2E2 | G6E2
e2ged2c2 | dB2AG4 | F3ED2E2 | G2EGAdBd | G8
B4B4 | z4A2G2 | E2G2D4 | E4E2G2 | A3BA2E2 | G8
d4e2d2 | ^c4d4 | e4g2f2 | e3ge2d2 | BdBdedeg | e2d2c2B2 | A4d2B2 | A8

